public/svgs/duotone/swatchbook.svg

<svg xmlns="http://www.w3.org/2000/svg" viewBox="0 0 512 512"><!-- Font Awesome Pro 6.0.0-alpha2 by @fontawesome - https://fontawesome.com License - https://fontawesome.com/license (Commercial License) --><defs><style>.fa-secondary{opacity:.4}</style></defs><path d="M434.625 167.75L344.5 77.375C332.125 64.875 312 64.875 299.5 77.25L299.375 77.375L224 152.875V424L434.625 212.875C447.125 200.375 447.125 180.25 434.625 167.75ZM480 320H373.125L186.625 506.5C184.625 508.625 182.125 510.125 180 512H480C497.625 512 512 497.625 512 480V352C512 334.375 497.625 320 480 320ZM64 256H128V192H64V256ZM64 128H128V64H64V128Z" class="fa-secondary"/><path d="M192 32.001C192 14.376 177.625 0.001 160 0.001H32C14.375 0.001 0 14.376 0 32.001V416.001C0 469.001 43 512.001 96 512.001S192 469.001 192 416.001V32.001ZM96 440.001C82.75 440.001 72 429.251 72 416.001S82.75 392.001 96 392.001S120 402.751 120 416.001S109.25 440.001 96 440.001ZM128 256.001H64V192.001H128V256.001ZM128 128.001H64V64.001H128V128.001Z" class="fa-primary"/></svg>

<svg xmlns="http://www.w3.org/2000/svg" viewBox="0 0 512 512"><!--! Font Awesome Pro 6.5.1 by @fontawesome - https://fontawesome.com License - https://fontawesome.com/license (Commercial License) Copyright 2023 Fonticons, Inc. --><defs><style>.fa-secondary{opacity:.4}</style></defs><path class="fa-secondary" d="M64 64v64h64V64H64zM173.1 473.1c5.9-3.7 11.4-8.1 16.5-13.2L435.2 214.4c12.5-12.5 12.5-32.8 0-45.3L344.7 78.6c-12.5-12.5-32.8-12.5-45.3 0L192 186V416c0 19.9-6 38.4-16.4 53.7c-.8 1.2-1.6 2.3-2.5 3.5zM480 512c17.7 0 32-14.3 32-32V352c0-17.7-14.3-32-32-32H374.8l-192 192L480 512zM128 192H64v64h64V192z"/><path class="fa-primary" d="M32 0C14.3 0 0 14.3 0 32V416c0 53 43 96 96 96s96-43 96-96V32c0-17.7-14.3-32-32-32H32zm96 64v64H64V64h64zM64 192h64v64H64V192zM96 392a24 24 0 1 1 0 48 24 24 0 1 1 0-48z"/></svg>
